X: 30055
T: MERRY GIRLS OF NEW YORK
C:
%R: reel
B: Elias Howe "The Musician's Companion" Part 3 1844 p.5 #5
S: http://imslp.org/wiki/The_Musician's_Companion_(Howe,_Elias)
S: https://archive.org/stream/firstthirdpartof03howe/#page/66/mode/1up
Z: 2016 John Chambers <jc:trillian.mit.edu>
M: 4/4
L: 1/8
K: A
% - - - - - - - - - - - - - - - - - - - - - - - - -
E2 |\
A2A2 ABcA | B2B2 B3d | cdef edcB | ABcA EFGE |\
A2A2 ABcA | B2B2 B2de | fedc edcB | A2A2A2 :|
|: e/f/g |\
aece Acec | dBGB E2ED | C2E2 A2cd | edcd B2 e/f/g |\
aece Acec | dBGB E2f2 |fgaf edcB | A2A2A2 :|
% - - - - - - - - - - - - - - - - - - - - - - - - -
